dist/svg/static/dealer-request-small.svg

<svg xmlns="http://www.w3.org/2000/svg" width="24" height="24" viewBox="0 0 24 24"><g fill="none" stroke="currentColor"><path d="M4 15.502H.5m3.5 6H1.493a.997.997 0 0 1-.993-1v-20h9v8.5" stroke-miterlimit="10"/><path d="M5.5 10.502h16a2 2 0 0 1 2 2v11h-16a2 2 0 0 1-2-2v-11z"/><path d="M8.49 14.932l5.983 4.569 6.037-4.593"/></g></svg>

<?xml version="1.0" encoding="UTF-8" standalone="no"?>
<svg width="24px" height="24px" viewBox="0 0 24 24" version="1.1" xmlns="http://www.w3.org/2000/svg" xmlns:xlink="http://www.w3.org/1999/xlink">
    <!-- Generator: sketchtool 46.2 (44496) - http://www.bohemiancoding.com/sketch -->
    <title>dealer-request-small</title>
    <desc>Created with sketchtool.</desc>
    <defs></defs>
    <g id="icons-published" stroke="none" stroke-width="1" fill="none" fill-rule="evenodd">
        <g id="briefing" transform="translate(-1796.000000, -410.000000)"></g>
        <g id="dealer-request-small" stroke="#000000">
            <path d="M4,15.5 L0.5,15.5 M4,21.5 L1.5,21.5 C0.9,21.5 0.5,21.1 0.5,20.5 L0.5,0.5 L9.5,0.5 L9.5,9" id="Shape"></path>
            <path d="M5.5,10.5 L21.5,10.5 C22.6,10.5 23.5,11.4 23.5,12.5 L23.5,23.5 L7.5,23.5 C6.4,23.5 5.5,22.6 5.5,21.5 C5.5,21.5 5.5,10.5 5.5,10.5 Z" id="Shape"></path>
            <polyline id="Shape" points="8.5 14.9 14.5 19.5 20.5 14.9"></polyline>
        </g>
    </g>
</svg>
